svgs/duotone/bath.svg

<svg xmlns="http://www.w3.org/2000/svg" viewBox="0 0 512 512"><!--! Font Awesome Pro 6.3.0 by @fontawesome - https://fontawesome.com License - https://fontawesome.com/license (Commercial License) Copyright 2023 Fonticons, Inc. --><defs><style>.fa-secondary{opacity:.4}</style></defs><path class="fa-primary" d="M32 384c0 28.32 12.49 53.52 32 71.09V496C64 504.8 71.16 512 80 512h32C120.8 512 128 504.8 128 496v-15.1h256V496c0 8.836 7.164 16 16 16h32c8.836 0 16-7.164 16-16v-40.9c19.51-17.57 32-42.77 32-71.09V352H32V384zM496 256h-480C7.164 256 0 263.2 0 272v32C0 312.8 7.164 320 16 320h480c8.836 0 16-7.164 16-16v-32C512 263.2 504.8 256 496 256z"/><path class="fa-secondary" d="M96 256V77.25C95.97 66.45 111 60.23 118.6 67.88L132.4 81.66C123.6 108.6 129.4 134.5 144.2 153.2C137.9 159.5 137.8 169.8 144 176l11.31 11.31c6.248 6.248 16.38 6.248 22.63 0l105.4-105.4c6.248-6.248 6.248-16.38 0-22.63l-11.31-11.31c-6.248-6.248-16.38-6.248-22.63 0C230.7 33.26 204.7 27.55 177.7 36.41L163.9 22.64C149.5 8.25 129.6 0 109.3 0C66.66 0 32 34.66 32 77.25v178.8L96 256z"/></svg>

<svg xmlns="http://www.w3.org/2000/svg" viewBox="0 0 512 512"><!-- Font Awesome Pro 6.0.0-alpha2 by @fontawesome - https://fontawesome.com License - https://fontawesome.com/license (Commercial License) --><defs><style>.fa-secondary{opacity:.4}</style></defs><path d="M96 256V77.25C95.969 66.453 111 60.234 118.625 67.875L132.414 81.664C123.555 108.648 129.428 134.48 144.174 153.207L144.004 153.377C137.756 159.625 137.756 169.756 144.004 176.004L155.314 187.314C161.563 193.563 171.693 193.563 177.941 187.314L283.314 81.941C289.563 75.693 289.563 65.563 283.314 59.314L272.004 48.004C265.756 41.756 255.625 41.756 249.377 48.004L249.207 48.174C230.48 33.432 204.662 27.551 177.67 36.408L163.906 22.641C149.531 8.25 129.625 0 109.25 0C66.656 0 32 34.656 32 77.25V256H96Z" class="fa-secondary"/><path d="M32 384C32 412.32 44.494 437.514 64 455.086V496C64 504.836 71.164 512 80 512H112C120.836 512 128 504.836 128 496V480H384V496C384 504.836 391.164 512 400 512H432C440.836 512 448 504.836 448 496V455.086C467.506 437.514 480 412.32 480 384V352H32V384ZM496 256H16C7.164 256 0 263.164 0 272V304C0 312.836 7.164 320 16 320H496C504.836 320 512 312.836 512 304V272C512 263.164 504.836 256 496 256Z" class="fa-primary"/></svg>
